svg/white/usdt.svg

<svg xmlns="http://www.w3.org/2000/svg" width="32" height="32" viewBox="0 0 32 32">
  <path fill="#FFF" fill-rule="evenodd" d="M16,32 C7.163444,32 0,24.836556 0,16 C0,7.163444 7.163444,0 16,0 C24.836556,0 32,7.163444 32,16 C32,24.836556 24.836556,32 16,32 Z M17.9224002,13.7927936 L17.9224002,11.4268416 L23.3357762,11.4268416 L23.3357762,7.8187776 L8.59452819,7.8187776 L8.59452819,11.4268416 L14.0086722,11.4268416 L14.0086722,13.7922816 C9.60880019,13.9942656 6.30000019,14.8656896 6.30000019,15.9096576 C6.30000019,16.9536256 9.60880019,17.8247936 14.0086722,18.0283136 L14.0086722,25.6097536 L17.9224002,25.6097536 L17.9224002,18.0262656 C22.3145922,17.8235136 25.6164802,16.9528576 25.6164802,15.9096576 C25.6164802,14.8667136 22.3145922,13.9958016 17.9224002,13.7927936 Z M17.9224002,17.3834496 L17.9224002,17.3814016 C17.8118082,17.3885696 17.2445122,17.4226176 15.9801282,17.4226176 C14.9699522,17.4226176 14.2590402,17.3939456 14.0086722,17.3808896 L14.0086722,17.3839616 C10.1213122,17.2126976 7.21878419,16.5355776 7.21878419,15.7255936 C7.21878419,14.9171456 10.1213122,14.2395136 14.0086722,14.0667136 L14.0086722,16.7104256 C14.2631362,16.7280896 14.9914562,16.7710976 15.9967682,16.7710976 C17.2038082,16.7710976 17.8092482,16.7209216 17.9224002,16.7104256 L17.9224002,14.0679936 C21.8020802,14.2407936 24.6971842,14.9184256 24.6971842,15.7255936 C24.6971842,16.5350656 21.8020802,17.2106496 17.9224002,17.3834496 Z"/>
</svg>

<svg xmlns="http://www.w3.org/2000/svg" width="32" height="32"><path fill="#FFF" fill-rule="evenodd" d="M16 32C7.163 32 0 24.837 0 16S7.163 0 16 0s16 7.163 16 16-7.163 16-16 16zm1.922-18.207v-2.366h5.414V7.819H8.595v3.608h5.414v2.365c-4.4.202-7.709 1.074-7.709 2.118 0 1.044 3.309 1.915 7.709 2.118v7.582h3.913v-7.584c4.393-.202 7.694-1.073 7.694-2.116 0-1.043-3.301-1.914-7.694-2.117zm0 3.59v-.002c-.11.008-.677.042-1.942.042-1.01 0-1.721-.03-1.971-.042v.003c-3.888-.171-6.79-.848-6.79-1.658 0-.809 2.902-1.486 6.79-1.66v2.644c.254.018.982.061 1.988.061 1.207 0 1.812-.05 1.925-.06v-2.643c3.88.173 6.775.85 6.775 1.658 0 .81-2.895 1.485-6.775 1.657z"/></svg>
